images/advantages-bg.svg

<svg xmlns="http://www.w3.org/2000/svg" fill="none" viewBox="0 0 1440 1507">
  <path fill="url(#a)" fill-opacity=".2" fill-rule="evenodd" d="M1015.22 1337.67c-171.225 82.74-333.513 184.51-522.844 166.76-197.468-18.51-372.057-119.11-508.104-263.41-155.005-164.4-297.869-357.867-290.606-583.717 7.872-244.807 112.478-511.773 329.488-625.395 204.01-106.814 425.818 91.65 655.372 109.747 259.51 20.458 546.304-159.353 751.234 1.141 225.33 176.476 347.65 515.569 253.83 786.001-88.98 256.493-423.91 290.743-668.37 408.873Z" clip-rule="evenodd"/>
  <defs>
    <linearGradient id="a" x1="851" x2="851" y1="-23.001" y2="1197.5" gradientUnits="userSpaceOnUse">
      <stop offset=".335" stop-color="#2B7FFF"/>
      <stop offset=".635" stop-color="#2B7FFF" stop-opacity="0"/>
      <stop offset=".895" stop-color="#2B7FFF" stop-opacity="0"/>
    </linearGradient>
  </defs>
</svg>

<svg width="1440" height="1507" viewBox="0 0 1440 1507" fill="none" xmlns="http://www.w3.org/2000/svg">
<path fill-rule="evenodd" clip-rule="evenodd" d="M1015.22 1337.67C843.995 1420.41 681.707 1522.18 492.376 1504.43C294.908 1485.92 120.319 1385.32 -15.7281 1241.02C-170.733 1076.62 -313.597 883.153 -306.334 657.303C-298.462 412.496 -193.856 145.53 23.1542 31.9084C227.164 -74.9062 448.972 123.558 678.526 141.655C938.036 162.113 1224.83 -17.6977 1429.76 142.796C1655.09 319.272 1777.41 658.365 1683.59 928.797C1594.61 1185.29 1259.68 1219.54 1015.22 1337.67Z" fill="url(#paint0_linear_64_137)" fill-opacity="0.2"/>
<defs>
<linearGradient id="paint0_linear_64_137" x1="851" y1="-23.0009" x2="851" y2="1197.5" gradientUnits="userSpaceOnUse">
<stop offset="0.334676" stop-color="#2B7FFF"/>
<stop offset="0.634564" stop-color="#2B7FFF" stop-opacity="0"/>
<stop offset="0.894715" stop-color="#2B7FFF" stop-opacity="0"/>
</linearGradient>
</defs>
</svg>
